X:1
T:Asturias
T:Asturias 
T:Suite Española Op. 47 No. 5
T:Isaac Albéniz (1860 - 1909)
C:Isaac Albéniz
%%score ( 1 2 3 )
L:1/8
Q:1/4=110
M:3/4
K:G
V:1 treble-8 nm="Classical Guitar" snm="Guit."
V:2 treble-8 
V:3 treble-8 
V:1
!p!"^Andante" E/B/B/B/ c/B/A/B/ B/B/G/B/ | E/B/B/B/ c/B/A/B/ B/B/G/B/ | %2
 E/B/B/B/ c/B/A/B/ B/B/G/B/ | A/B/F/B/ G/B/A/B/ F/B/G/B/ | E/B/B/B/ c/B/A/B/ B/B/G/B/ | %5
 E/B/B/B/ c/B/A/B/ B/B/G/B/ | E/B/B/B/ c/B/A/B/ B/B/G/B/ | A/B/F/B/ G/B/E/B/ D/B/C/B/ | %8
 B,/B/B/B/ c/B/A/B/ B/B/F/B/ | B,/B/B/B/ c/B/A/B/ B/B/F/B/ | B,/B/F/B/ A/B/B/B/ c/B/d/B/ | %11
 B/B/c/B/ A/B/B/B/ G/B/F/B/ | B,/B/B/B/ c/B/A/B/ B/B/F/B/ | B,/B/B/B/ c/B/A/B/ B/B/F/B/ | %14
 B,/B/A/B/ B/B/c/B/ d/B/B/B/ | c/B/A/B/ B/B/G/B/ A/B/F/B/ | %16
!f! (3E/B/b/ (3B/B/b/ (3c/B/b/ (3A/B/b/ (3B/B/b/ (3G/B/b/ | %17
 (3E/B/b/ (3B/B/b/ (3c/B/b/ (3A/B/b/ (3B/B/b/ (3G/B/b/ | %18
 (3E/B/b/ (3B/B/b/ (3c/B/b/ (3A/B/b/ (3B/B/b/ (3G/B/b/ | %19
 (3A/B/b/ (3F/B/b/ (3G/B/b/ (3A/B/b/ (3F/B/b/ (3G/B/b/ | %20
 (3E/B/b/ (3B/B/b/ (3c/B/b/ (3A/B/b/ (3B/B/b/ (3G/B/b/ | %21
 (3E/B/b/ (3B/B/b/ (3c/B/b/ (3A/B/b/ (3B/B/b/ (3G/B/b/ | %22
 (3E/B/b/ (3B/B/b/ (3c/B/b/ (3A/B/b/ (3B/B/b/ (3G/B/b/ | %23
 (3A/B/b/ (3F/B/b/ (3G/B/b/ (3E/B/b/ (3D/B/b/ (3C/B/b/ | %24
!mf!"^VII" !arpeggio![B^dfb](3B/B/B/ (3c/B/B/ (3A/B/B/ (3B/B/B/ (3F/B/B/ | %25
"^VII" !arpeggio![B^dfb](3B/B/B/ (3c/B/B/ (3A/B/B/ (3B/B/B/ (3F/B/B/ | %26
"^VII" !arpeggio![B^dfb](3F/B/B/ (3A/B/B/ (3B/B/B/ (3c/B/B/ (3=d/B/B/ | %27
 (3B/B/B/ (3c/B/B/ (3A/B/B/ (3B/B/B/ (3G/B/B/ (3F/B/B/ | %28
 !arpeggio![B^dfb](3B/B/B/ (3c/B/B/ (3A/B/B/ (3B/B/B/ (3F/B/B/ | %29
 !arpeggio![B^dfb](3B/B/B/ (3c/B/B/ (3A/B/B/ (3B/B/B/ (3F/B/B/ | %30
 !arpeggio![B^dfb](3F/B/B/ (3A/B/B/ (3B/B/B/ (3c/B/B/ (3=d/B/B/ | %31
 (3B/B/B/ (3c/B/B/ (3A/B/B/ (3B/B/B/ (3G/B/B/ (3B/B/B/ | %32
!f! !arpeggio![GBe'](3B/B/B/ (3c/B/B/ (3A/B/B/ (3B/B/B/ (3G/B/B/ | %33
 !arpeggio![GBe'](3B/B/B/ (3c/B/B/ (3A/B/B/ (3B/B/B/ (3G/B/B/ | %34
 !arpeggio![GBe'](3B/B/B/ (3c/B/B/ (3A/B/B/ (3B/B/B/ (3G/B/B/ | %35
 (3A/B/B/ (3F/B/B/ (3G/B/B/ (3A/B/B/ (3F/B/B/ (3G/B/B/ | %36
"^VIII" !arpeggio![^Aege'](3c/e/c'/ (3d/e/c'/ (3B/e/c'/ (3c/e/c'/ (3G/e/c'/ | %37
 !arpeggio![^Aege'](3c/e/c'/ (3d/e/c'/ (3B/e/c'/ (3c/e/c'/ (3G/e/c'/ | %38
 !arpeggio![^Aege'](3c/e/c'/ (3d/e/c'/ (3B/e/c'/ (3c/e/c'/ (3G/e/c'/ | %39
 (3A/f/c'/ (3F/f/c'/ (3G/f/c'/ (3A/f/c'/ (3E/f/c'/ (3F/f/c'/ | %40
 !arpeggio![B^dfb](3B/d/b/ (3c/d/b/ (3^A/d/b/ (3B/d/b/ (3F/d/b/ | %41
 !arpeggio![^Aegc'](3c/e/c'/ (3d/e/c'/ (3B/e/c'/ (3c/e/c'/ (3G/e/c'/ | %42
"^VII" !arpeggio![B^dfb](3B/d/b/ (3c/d/b/ (3^A/d/b/ (3B/d/b/ (3F/d/b/ | %43
"^VIII" !arpeggio![^Aegc'](3c/e/c'/ (3d/e/c'/ (3B/e/c'/ (3c/e/c'/ (3G/e/c'/ | %44
"^VII" !arpeggio![B^dfb](3B/B/b/ (3c/B/b/ (3A/B/b/ (3B/B/b/ (3G/B/b/ | %45
 (3A/B/b/ (3F/B/b/ (3G/B/b/ (3A/B/b/ (3F/B/b/ (3G/B/b/ | %46
 (3E/B/b/ (3F/B/b/ (3G/B/b/ (3A/B/b/ (3F/B/b/ (3G/B/b/ | %47
 (3E/B/b/ (3F/B/b/ (3G/B/b/ (3E/B/b/ (3D/B/b/ (3C/B/b/ | B,/B/B/B/ c/B/A/B/ B/B/G/B/ | %49
 A/B/F/B/ G/B/A/B/ F/B/G/B/ | E/B/F/B/ G/B/A/B/ F/B/G/B/ | E/B/F/B/ G/B/E/B/ D/B/C/B/ | %52
!mf!(3x/^d/f/ (3F/d/f/ (3B/d/f/ (3c/d/f/ (3^A/d/f/ (3B/d/f/ | %53
(3x/g/e/ (3G/g/e/ (3c/g/e/ (3d/g/e/ (3B/g/e/ (3c/g/e/ | %54
(3x/^d/f/ (3F/d/f/ (3B/d/f/ (3c/d/f/ (3^A/d/f/ (3c/d/f/ | %55
(3x/g/e/ (3G/g/e/ (3c/g/e/ (3d/g/e/ (3B/g/e/ (3c/g/e/ | %56
(3x/^d/f/ (3F/d/f/ (3B/d/f/ (3c/d/f/ (3^A/d/f/ (3c/d/f/ | %57
 (3B/^d/f/ (3c/d/f/ (3^A/d/f/ (3c/d/f/ (3B/d/f/(3F/d/f/ | B,^DFB^df | b^dfb^d'f' | b'6!dacoda! | %61
!p! [^DFB]2 z2 z2 ||[Q:1/4=80]"^Andante Tranquillo"!mf! b4 ab | d'4{/bc'} ba | b6 | %65
"^II" !fermata!^d2 f4 |!p! b4 ab | d'4{/bc'} ba | b6 | !fermata!B2 d4 |!f! b4 ^a2- | %71
 a2{/g=a} gf eg | f6 |"^II" !fermata!^d2 f4 |!p! b4 c'b | ^af{/g=a} gf eg | f4 [F^Ae]2 | %77
"^II" [FB^d]6 |[Q:1/4=120]!mf! z2 [Bd]4 |"^IV" z2{/_e=f} [ce]dea | z2 [Bd]4 | z2 [^AB]2 [=AB]2 | %82
 z2 G2 B2 | z2 F2 B2 | z2 F2 B2 |"^II" z2 [^Ae]4 | z2 [B^d]2 z2 |!mf! z2 e2 z2 | %88
"^II" z2 [B^d]2 z2 |!p! z2 e2 z2 |"^II" z2 [B^d]2 z2 |!mf!"^IV" AB c(d/c/) B!-(!A | %92
"^VI" !-)!B^A F=A ^GE |"^II" GF D=F EC | z2 F2 [B^d]2 |!f!"^V" z2 [c=fa]2 z2 | z2 E2 [Be^g]2 | %97
!p!"^V" z2 [c=fa]2 z2 | z2 E2 [Be^g]2 ||[Q:1/4=120]"^Andante"!mf! c^d e(B/c/) AB | %100
 GB !-(!FB !-)!GB | ef g(d/e/) cd | Bd ^Ad Bd |"^V" =fg ac'{/_bc'} ba | c'a gf ac' | %105
 cd{/ef} e2"^V" dc |"^VII" z2 F2 [B^d]2 | z6 | z2 F2 [B^d]2 | z6 | z2 F2 [B^d]2 | %111
 (3G/g/b/ (3^A/g/b/ (3B/g/b/ (3d/g/b/ (3A/g/b/ (3B/g/b/ | %112
"^II" (3D/d/f/ (3^E/d/f/ (3F/d/f/ (3A/d/f/ (3E/d/f/ (3F/d/f/ | %113
 (3C/^A/e/ (3F/A/e/ (3G/A/e/ (3E/A/e/ (3D/A/e/ (3C/A/e/ |!f! [Bb]4 ab | d'4{/bc'} ba | b6 | %117
"^II" !fermata!^d2 f4 |!p! b4 ab | d'4{/bc'} ba | b4 [F^Ae]2 | [FB^d]6!D.C.! ||O!p! [^DFB]2 z2 B2 | %123
!f! [Gce]4 A2 | [DGB]6 | [Ec]4 F2 | [GGB]6 |"^I" =f6 | =f4 e2 |"^VII" [F-A-e]6 | %130
 [FA^d]2 B2 !fermata!A2 |[Q:1/4=110]"^Quasi andante" E/B/B/B/ c/B/A/B/ B/B/G/B/ | %132
 E/B/B/B/ c/B/A/B/ B/B/G/B/ | !fermata!z (3C/E/G/ (3^A,/E/G/ (3C/E/G/ (3A,/E/G/ (3C/E/G/ | %134
!<(! (3^A,/E/G/ (3C/E/G/!<)! (3A,/E/G/ (3C/!>(!E/G/ (3A,/E/G/ (3C/E/G/!>)! |!pp! [GBe]6 | [Eee]6 |] %137
V:2
 EB cA BG | EB cA BG | EB cA BG | AF GA FG | EB cA BG | EB cA BG | EB cA BG | AF GE DC | %8
 B,B cA BF | B,B cA BF | B,F AB cd | Bc AB GF | B,B cA BF | B,B cA BF | B,A Bc dB | cA BG AF | %16
 [E,E]B cA BG | [E,E]B cA BG | [E,E]B cA BG | AF GA FG | [E,E]B cA BG | [E,E]B cA BG | %22
 [E,E]B cA BG | AF GE DC | [B,F]B cA BF | [B,F]B cA BF | [B,F]F AB cd | Bc AB GF | [B,F]B cA BF | %29
 [B,F]B cA BF | [B,F]F AB cd | Bc AB GB | [GB] B cA BG | [GB] B cA BG | [GB] B cA BG | AF GA FG | %36
 [CG]c dB cG | [CG]c dB cG | [CG]c dB cG | AF GA EF | [B,F]B c^A BF | [CG]c dB cG | [B,F]B c^A BF | %43
 [CG]c dB cG | [B,F]B cA BG | AF GA FG | EF GA FG | EF GE DC | B,B cA BG | AF GA FG | EF GA FG | %51
 EF GE DC | x F Bc ^AB | x G cd Bc | x F Bc ^Ac | x G cd Bc | x F Bc ^Ac | Bc ^Ac BF | x6 | x6 | %60
 x6 | B,2 x4 || B4 AB | d4 BA | B6 | !fermata![B,FB]6 | B4 AB | d4 BA | B6 | !fermata![G,DG]6 | %70
 B4 ^A2- | A2 GF EG | F6 | !fermata![B,FB]6 | B4 cB | ^AF GF EG | F4 C2 | B,6 | G6 | F6 | G6 | %81
!-(!{/^D} !-)!F4 D2 | E6 | D6 | C6 | F,6 | B,4 F2 | A,B, C(D/C/) B,A, | B,4 F2 | %89
 A,B, C(D/C/) B,A, | B,4 F2 | z6 | x6 | x6 | B,6 | B,C D(E/D/) CB, | E,6 | B,C D(E/D/) CB, | E,6 || %99
 A,2 G,2 F,2 | E,2 !-(!^D2 !-)!E2 | [CG]2 [B,G]2 [A,F]2 | [G,D]2 [F,D]2 [G,D]2 | z6 | z6 | %105
 [A,F]4 [^A,EG]2 | B,6 | CD{/EF} E2 DC | B,6 | CD{/EF} E2 DC | B,6 | G^A Bd AB | D^E FA EF | %113
 CF GE DC | B,4 AB | d4 BA | B6 | !fermata![B,FB]6 | B4 AB | d4 BA | B4 C2 | B,6 || B,2 z2 z2 | %123
 [CE]6 | G,6 | A,6 | E,6 | [Ac]4 [_B_d]2 | [Ac]6 | B,6- | B,2 G2 F2 | EB cA BG | EB cA BG | %133
 !fermata!EC ^A,C A,C | ^A,C A,C A,C | E,6 | E,6 |] %137
V:3
 x6 | x6 | x6 | x6 | x6 | x6 | x6 | x6 | x6 | x6 | x6 | x6 | x6 | x6 | x6 | x6 | x6 | x6 | x6 | %19
 x6 | x6 | x6 | x6 | x6 | x6 | x6 | x6 | x6 | x6 | x6 | x6 | x6 | E,6 | E,6 | E,6 | x6 | x6 | x6 | %38
 x6 | x6 | x6 | x6 | x6 | x6 | x6 | x6 | x6 | x6 | x6 | x6 | x6 | x6 | B,6 | B,6 | B,6 | B,6 | %56
 B,6 | x6 | x6 | x6 | x6 | x6 || x6 | x6 | x6 | x6 | x6 | x6 | x6 | x6 | x6 | x6 | x6 | x6 | x6 | %75
 x6 | x6 | x6 | x6 | x6 | x6 | x6 | x6 | x6 | x6 | x6 | x6 | x6 | x6 | x6 | x6 | x6 | x6 | x6 | %94
 x6 | x6 | x6 | x6 | x6 || x6 | x6 | x6 | x6 | x6 | x6 | x6 | x6 | x6 | x6 | x6 | x6 | x6 | x6 | %113
 x6 | x6 | x6 | x6 | x6 | x6 | x6 | x6 | x6 || x6 | x6 | x6 | x6 | x6 | x6 | x6 | x6 | x6 | x6 | %132
 x6 | x6 | x6 | x6 | x6 |] %137

